X:6802
T:Hardman's Jig
S:Treoir, 1993 (from Jimmy McHugh)
M:6/8
I:speed 250
K:D
|: F | BcB {d}BAF | AFE EFE |  DFA def | afe dBA | 
BcB {d}BAF | AFE EFE | DFA def | edB B2:|
|: d | efe edB | AFF dFF Adf afa | bc'b afa |
baf {b}afa | baf edB | def afe | fdB B2:|
